X:1
T:Reel de l'ecole elementaire Albert Camus
M:C
L:1/8
Q:200
C:(c) Greg Anderson, 6 March 2000
R:Reel
H:During our year in France I volunteered in the libary of our kids'
H:elementary school. This tune is for all the great kids, teachers, and
H:other staff of the Ecole Elementaire Albert Camus, in Talence, France
K:G
GF GA BA Bd|ed Bd B2 g2|fg fd AB cA|Bc de dc BA|
GF GA BA Bd|ed Bd B2 g2|fg fd AG FD|1GB AF G2 (3DEF:|
2GB AF G2 (3def|:g2 d3 f g2|f2 ef ed AB|cd cB AB cA|Bc de dc Bd|
g2 d3 f g2|f2 ef ed AB|cd cB AB cA|1BG AF G2 (3Bdf:|2BG AF G2 (3DEF||
